svgs/wallmewallpaper.svg

<svg xmlns="http://www.w3.org/2000/svg" viewBox="0 0 192 192"><path d="M56.233 129.723 95.8 113.797l32.938 12.708-39.566 15.926Zm-7.202 29.165 28.023-11.28 23.33 9.001-28.024 11.279Zm43.008 10.523 18.694-7.632 15.563 6.09-18.694 7.631ZM96 97.051v8.643M96 16.5l49.495 40.276L96 97.051 46.505 56.776ZM120.747 76.913 71.252 36.638m0 40.275 49.495-40.275" fill="none" stroke="#000" stroke-width="8" stroke-linecap="round" stroke-linejoin="round"/></svg>

<svg
    xmlns="http://www.w3.org/2000/svg"
    viewBox="0 0 192 192"
    id="vector">
    <path
        id="path"
        d="M 56.233 129.723 L 95.8 113.797 L 128.738 126.505 L 89.172 142.431 Z M 49.031 158.888 L 77.054 147.608 L 100.384 156.609 L 72.36 167.888 Z M 92.039 169.411 L 110.733 161.779 L 126.296 167.869 L 107.602 175.5 Z"
        fill="none"
        stroke="#000000"
        stroke-width="8"
        stroke-linecap="round"
        stroke-linejoin="round"/>
    <path
        id="path_1"
        d="M 96 97.051 L 96 105.694"
        fill="none"
        stroke="#000000"
        stroke-width="8"
        stroke-linecap="round"
        stroke-linejoin="round"/>
    <path
        id="path_2"
        d="M 96 16.5 L 145.495 56.776 L 96 97.051 L 46.505 56.776 Z"
        fill="none"
        stroke="#000000"
        stroke-width="8"
        stroke-linecap="round"
        stroke-linejoin="round"/>
    <path
        id="path_3"
        d="M 120.747 76.913 L 71.252 36.638 M 71.252 76.913 L 120.747 36.638"
        fill="none"
        stroke="#000000"
        stroke-width="8"
        stroke-linecap="round"
        stroke-linejoin="round"/>
</svg>
